public/avatar/item2/8.svg

<svg xmlns:xlink="http://www.w3.org/1999/xlink" height="99.2" width="82.2" xmlns="http://www.w3.org/2000/svg"><use height="18.2" transform="translate(14.1 68.1)" width="33.15" xlink:href="#a"/><defs><g id="a" fill-rule="evenodd"><path d="M14.15 21.75q.2-.4 1.25-.4.75.1.85.5v.1q0 1.05-1.1 2.85-1.5 2.45-4 3.6 2.35 1.3 2.35 3.35l-.1.65q-.45 2.5-2.8 2.5-2.65-.05-4.1-2.6-.8-1.45-.8-2.7l.05-.15q-1.75.1-2.4.7 1.6 1.75 1.6 4.2 0 1.3-.45 2.4-1.2 2.95-4.25 2.8-3.35-.3-4.2-2.9l-.2-1.6q0-2.7 1.35-4.5-.7-.7-1.9-.8v.1q0 2.45-1.5 4.15-1.55 1.85-4.2 1.25-2.05-.55-2.15-2.4l-.05-.2q0-1.9 1.55-3.55-5.35-2.15-5.85-6.65v-.1l.1-.2.55-.6.35-.1.3.2q.65 1.1 2.5 2.75 2.15 1.9 3.85 2.45h.2q7.3.1 9.35 2.3 1.8-2.4 8.65-2.75 2.9-.05 5.2-4.65m-1.2 4.55q1.2-1.2 1.95-2.8l.6-1.6-1 .05-.5 1.3q-.7 1.3-1.95 2.35-1.3 1.05-2.85 1.55l-2.65.3-2.6.55q-2.8.8-3.55 2.3l-.1-.15Q-.85 28.8-3.3 28.2l-3.7-.45-2.5-.05q-1.3-.4-2.85-1.7-2.3-1.9-3.45-3.65l-.45.4q.4 2.3 2.95 4.1 1.8 1.3 3.75 1.95-1.1.4-1.9 2.45-.95 2.25.9 3.05l.5.15q2.8.6 4-2.1.95-2.15.45-3.45l1.95.4q1.5.45 1.9 1.1-1.1 1-1.5 3.05l-.2 1.15q-.25 2.1 1.05 3.15.6.5 1.55.75l1.15.2h.05q3.25.05 3.75-3.25.55-3.2-1.8-5.35.35-.65 1.95-1.15l2.35-.4v.1l-.15-.05v.4q-.1.6.2 1.5.35 1.9 1.65 2.7.95.8 2.3.85l.75-.15q1.65-.55 1.45-2.35-.2-1.95-3.05-3.1 1.75-.7 3.2-2.15" fill="#351e02" transform="translate(16.9 -21.35)"/><path d="m12.05 25.6.9.7q-1.45 1.45-3.2 2.15 2.85 1.15 3.05 3.1.2 1.8-1.45 2.35l-.55-.75.45-.3q1.3-1.1-.45-3-1.6-1.9-2.9-.8l-.1.1-1.25-1.7 2.65-.3q1.55-.5 2.85-1.55m-7.8 3.35q-1.6.5-1.95 1.15 2.35 2.15 1.8 5.35-.5 3.3-3.75 3.25v-.8H.4q2.55 0 2.55-3.4 0-3.35-2.55-3.35H.3v-1l.1.15q.75-1.5 3.55-2.3l.3.95m-7.9.35-1.95-.4q.5 1.3-.45 3.45-1.2 2.7-4 2.1l-.5-.15.5-.9.55.4q1.5.7 2.6-1.65 1-2.25-.45-3l-.35-.1.7-1.3 3.7.45-.35 1.1" fill="#b57a06" transform="translate(16.9 -21.35)"/><path d="M12.05 25.6q1.25-1.05 1.95-2.35l.5-1.3 1-.05-.6 1.6q-.75 1.6-1.95 2.8l-.9-.7m-.7 8.3-.75.15Q9.25 34 8.3 33.2l.95.4v-.5q-.9-.2-1.75-1.85l-.8-2.6h-.1v-.1l-2.35.4-.3-.95 2.6-.55 1.25 1.7q-1.1 1.05.55 2.9 1.35 1.6 2.45 1.1l.55.75m-11 4.8H.3l-1.15-.2.8-.05v-.4q-.65.1-1.45-.75l-.9-1.45q-.7-2.3.55-4.85l-.25.2q-.85 1.15-1.15 2.25.4-2.05 1.5-3.05-.4-.65-1.9-1.1l.35-1.1q2.45.6 3.6 1.95v1q-2.45.05-2.45 3.35 0 3.35 2.5 3.4v.8m-2.75-.95q-1.3-1.05-1.05-3.15-.05.9.3 1.8l.75 1.35m-8.15-3.45q-1.85-.8-.9-3.05.8-2.05 1.9-2.45-1.95-.65-3.75-1.95-2.55-1.8-2.95-4.1l.45-.4q1.15 1.75 3.45 3.65 1.55 1.3 2.85 1.7l2.5.05-.7 1.3q-1.3-.3-2.25 1.75-.75 1.75-.1 2.6l-.5.9m.15-4.55v-.05q-.8.7-1.05 2.2-.25 1.6.7 2.1l.5-.7q-.7-.4-.15-3.55" fill="#f4c606" transform="translate(16.9 -21.35)"/><path d="m7.8 29.15.1-.1q1.3-1.1 2.9.8 1.75 1.9.45 3l-.45.3q-1.1.5-2.45-1.1-1.65-1.85-.55-2.9m1.8 1q.55-.15 1.2.65l.15.2-.6-1.1q-1.4-1.5-2.35-.6-1 .85.35 2.4.85.95 1.7.85l-.65-.5q-.6-.7-.5-1.2.65-.05.7-.7M.85 33.6Q2 33.75 2 35.5v.3l.3-1.45q0-2.7-2.05-2.7t-2.05 2.7q0 1.85 1.3 2.5-.45-.5-.45-1.35l.25-1.2.4.05q.95 0 1.15-.75M.3 31.15h.1q2.55 0 2.55 3.35 0 3.4-2.55 3.4H.35q-2.5-.05-2.5-3.4 0-3.3 2.45-3.35m-10.35 2.25q-.65-.85.1-2.6.95-2.05 2.25-1.75l.35.1q1.45.75.45 3Q-8 34.5-9.5 33.8l-.55-.4m.85-2.1.45.1q.75 0 .85-.55.65.3.3 1.45l.25-.5q.9-1.8-.35-2.4-1.25-.5-2.05 1.3-.75 1.7.25 2.35-.25-.6.1-1.35l.2-.4" fill="#d63600" transform="translate(16.9 -21.35)"/><path d="M8.9 30.85q-.1.5.5 1.2l.65.5q-.85.1-1.7-.85Q7 30.15 8 29.3q.95-.9 2.35.6l.6 1.1-.15-.2q-.65-.8-1.2-.65V30q0-.8-.85-.8-.8 0-.8.8 0 .85.8.85h.15M-.7 34.3l-.25 1.2q0 .85.45 1.35-1.3-.65-1.3-2.5 0-2.7 2.05-2.7t2.05 2.7L2 35.8v-.3q0-1.75-1.15-1.9l.05-.45q0-1.2-1.2-1.2t-1.2 1.2q0 .95.8 1.15m-7.2-3.45v-.25q0-.8-.85-.8-.8 0-.8.8 0 .55.35.7l-.2.4q-.35.75-.1 1.35-1-.65-.25-2.35.8-1.8 2.05-1.3 1.25.6.35 2.4l-.25.5q.35-1.15-.3-1.45" fill="#ff7d00" transform="translate(16.9 -21.35)"/><path d="M8.3 33.2q-1.3-.8-1.65-2.7-.3-.9-.2-1.5v-.4l.15.05h.1l.8 2.6q.85 1.65 1.75 1.85v.5l-.95-.4m-9.15 5.3q-.95-.25-1.55-.75l-.75-1.35q-.35-.9-.3-1.8l.2-1.15q.3-1.1 1.15-2.25l.25-.2q-1.25 2.55-.55 4.85l.9 1.45q.8.85 1.45.75v.4l-.8.05m9.75-7.65h-.15q-.8 0-.8-.85 0-.8.8-.8.85 0 .85.8v.15q-.05.65-.7.7M-.7 34.3q-.8-.2-.8-1.15 0-1.2 1.2-1.2t1.2 1.2l-.05.45q-.2.75-1.15.75l-.4-.05m-8.5-3q-.35-.15-.35-.7 0-.8.8-.8.85 0 .85.8v.25q-.1.55-.85.55l-.45-.1m-1.2-1.55q-.55 3.15.15 3.55l-.5.7q-.95-.5-.7-2.1.25-1.5 1.05-2.2v.05" fill="#fff" transform="translate(16.9 -21.35)"/></g></defs></svg>

<?xml version="1.0" encoding="UTF-8" standalone="no"?>
<svg xmlns:xlink="http://www.w3.org/1999/xlink" height="99.2px" width="82.2px" xmlns="http://www.w3.org/2000/svg">
  <g transform="matrix(1.0, 0.0, 0.0, 1.0, 31.0, 46.75)">
    <use height="18.2" transform="matrix(1.0, 0.0, 0.0, 1.0, -16.9, 21.35)" width="33.15" xlink:href="#shape0"/>
  </g>
  <defs>
    <g id="shape0" transform="matrix(1.0, 0.0, 0.0, 1.0, 16.9, -21.35)">
      <path d="M14.15 21.75 Q14.35 21.35 15.4 21.35 16.15 21.45 16.25 21.85 L16.25 21.95 Q16.25 23.0 15.15 24.8 13.65 27.25 11.15 28.4 13.5 29.7 13.5 31.75 L13.4 32.4 Q12.95 34.9 10.6 34.9 7.95 34.85 6.5 32.3 5.7 30.85 5.7 29.6 L5.75 29.45 Q4.0 29.55 3.35 30.15 4.95 31.9 4.95 34.35 4.95 35.65 4.5 36.75 3.3 39.7 0.25 39.55 -3.1 39.25 -3.95 36.65 L-4.15 35.05 Q-4.15 32.35 -2.8 30.55 -3.5 29.85 -4.7 29.75 L-4.7 29.85 Q-4.7 32.3 -6.2 34.0 -7.75 35.85 -10.4 35.25 -12.45 34.7 -12.55 32.85 L-12.6 32.65 Q-12.6 30.75 -11.05 29.1 -16.4 26.95 -16.9 22.45 L-16.9 22.35 -16.8 22.15 -16.25 21.55 -15.9 21.45 -15.6 21.65 Q-14.95 22.75 -13.1 24.4 -10.95 26.3 -9.25 26.85 L-9.05 26.85 Q-1.75 26.95 0.3 29.15 2.1 26.75 8.95 26.4 11.85 26.35 14.15 21.75 M12.95 26.3 Q14.15 25.1 14.9 23.5 L15.5 21.9 14.5 21.95 14.0 23.25 Q13.3 24.55 12.05 25.6 10.75 26.65 9.2 27.15 L6.55 27.45 3.95 28.0 Q1.15 28.8 0.4 30.3 L0.3 30.15 Q-0.85 28.8 -3.3 28.2 L-7.0 27.75 -9.5 27.7 Q-10.8 27.3 -12.35 26.0 -14.65 24.1 -15.8 22.35 L-16.25 22.75 Q-15.85 25.05 -13.3 26.85 -11.5 28.15 -9.55 28.8 -10.65 29.2 -11.45 31.25 -12.4 33.5 -10.55 34.3 L-10.05 34.45 Q-7.25 35.05 -6.05 32.35 -5.1 30.2 -5.6 28.9 L-3.65 29.3 Q-2.15 29.75 -1.75 30.4 -2.85 31.4 -3.25 33.45 L-3.45 34.6 Q-3.7 36.7 -2.4 37.75 -1.8 38.25 -0.85 38.5 L0.3 38.7 0.35 38.7 Q3.6 38.75 4.1 35.45 4.65 32.25 2.3 30.1 2.65 29.45 4.25 28.95 L6.6 28.55 6.6 28.65 6.45 28.6 6.45 29.0 Q6.35 29.6 6.65 30.5 7.0 32.4 8.3 33.2 9.25 34.0 10.6 34.05 L11.35 33.9 Q13.0 33.35 12.8 31.55 12.6 29.6 9.75 28.45 11.5 27.75 12.95 26.3" fill="#351e02" fill-rule="evenodd" stroke="none"/>
      <path d="M12.05 25.6 L12.95 26.3 Q11.5 27.75 9.75 28.45 12.6 29.6 12.8 31.55 13.0 33.35 11.35 33.9 L10.8 33.15 11.25 32.85 Q12.55 31.75 10.8 29.85 9.2 27.95 7.9 29.05 L7.8 29.15 6.55 27.45 9.2 27.15 Q10.75 26.65 12.05 25.6 M4.25 28.95 Q2.65 29.45 2.3 30.1 4.65 32.25 4.1 35.45 3.6 38.75 0.35 38.7 L0.35 37.9 0.4 37.9 Q2.95 37.9 2.95 34.5 2.95 31.15 0.4 31.15 L0.3 31.15 0.3 30.15 0.4 30.3 Q1.15 28.8 3.95 28.0 L4.25 28.95 M-3.65 29.3 L-5.6 28.9 Q-5.1 30.2 -6.05 32.35 -7.25 35.05 -10.05 34.45 L-10.55 34.3 -10.05 33.4 -9.5 33.8 Q-8.0 34.5 -6.9 32.15 -5.9 29.9 -7.35 29.15 L-7.7 29.05 -7.0 27.75 -3.3 28.2 -3.65 29.3" fill="#b57a06" fill-rule="evenodd" stroke="none"/>
      <path d="M12.05 25.6 Q13.3 24.55 14.0 23.25 L14.5 21.95 15.5 21.9 14.9 23.5 Q14.15 25.1 12.95 26.3 L12.05 25.6 M11.35 33.9 L10.6 34.05 Q9.25 34.0 8.3 33.2 L9.25 33.6 9.25 33.1 Q8.35 32.9 7.5 31.25 L6.7 28.65 6.6 28.65 6.6 28.55 4.25 28.95 3.95 28.0 6.55 27.45 7.8 29.15 Q6.7 30.2 8.35 32.05 9.7 33.65 10.8 33.15 L11.35 33.9 M0.35 38.7 L0.3 38.7 -0.85 38.5 -0.05 38.45 -0.05 38.05 Q-0.7 38.15 -1.5 37.3 L-2.4 35.85 Q-3.1 33.55 -1.85 31.0 L-2.1 31.2 Q-2.95 32.35 -3.25 33.45 -2.85 31.4 -1.75 30.4 -2.15 29.75 -3.65 29.3 L-3.3 28.2 Q-0.85 28.8 0.3 30.15 L0.3 31.15 Q-2.15 31.2 -2.15 34.5 -2.15 37.85 0.35 37.9 L0.35 38.7 M-2.4 37.75 Q-3.7 36.7 -3.45 34.6 -3.5 35.5 -3.15 36.4 L-2.4 37.75 M-10.55 34.3 Q-12.4 33.5 -11.45 31.25 -10.65 29.2 -9.55 28.8 -11.5 28.15 -13.3 26.85 -15.85 25.05 -16.25 22.75 L-15.8 22.35 Q-14.65 24.1 -12.35 26.0 -10.8 27.3 -9.5 27.7 L-7.0 27.75 -7.7 29.05 Q-9.0 28.75 -9.95 30.8 -10.7 32.55 -10.05 33.4 L-10.55 34.3 M-10.4 29.75 L-10.4 29.7 Q-11.2 30.4 -11.45 31.9 -11.7 33.5 -10.75 34.0 L-10.25 33.3 Q-10.95 32.9 -10.4 29.75" fill="#f4c606" fill-rule="evenodd" stroke="none"/>
      <path d="M7.8 29.15 L7.9 29.05 Q9.2 27.95 10.8 29.85 12.55 31.75 11.25 32.85 L10.8 33.15 Q9.7 33.65 8.35 32.05 6.7 30.2 7.8 29.15 M9.6 30.15 Q10.15 30.0 10.8 30.8 L10.95 31.0 10.35 29.9 Q8.95 28.4 8.0 29.3 7.0 30.15 8.35 31.7 9.2 32.65 10.05 32.55 L9.4 32.05 Q8.8 31.35 8.9 30.85 9.55 30.8 9.6 30.15 M0.85 33.6 Q2.0 33.75 2.0 35.5 L2.0 35.8 2.3 34.35 Q2.3 31.65 0.25 31.65 -1.8 31.65 -1.8 34.35 -1.8 36.2 -0.5 36.85 -0.95 36.35 -0.95 35.5 L-0.7 34.3 -0.3 34.35 Q0.65 34.35 0.85 33.6 M0.3 31.15 L0.4 31.15 Q2.95 31.15 2.95 34.5 2.95 37.9 0.4 37.9 L0.35 37.9 Q-2.15 37.85 -2.15 34.5 -2.15 31.2 0.3 31.15 M-10.05 33.4 Q-10.7 32.55 -9.95 30.8 -9.0 28.75 -7.7 29.05 L-7.35 29.15 Q-5.9 29.9 -6.9 32.15 -8.0 34.5 -9.5 33.8 L-10.05 33.4 M-9.2 31.3 L-8.75 31.4 Q-8.0 31.4 -7.9 30.85 -7.25 31.15 -7.6 32.3 L-7.35 31.8 Q-6.45 30.0 -7.7 29.4 -8.95 28.9 -9.75 30.7 -10.5 32.4 -9.5 33.05 -9.75 32.45 -9.4 31.7 L-9.2 31.3" fill="#d63600" fill-rule="evenodd" stroke="none"/>
      <path d="M8.9 30.85 Q8.8 31.35 9.4 32.05 L10.05 32.55 Q9.2 32.65 8.35 31.7 7.0 30.15 8.0 29.3 8.95 28.4 10.35 29.9 L10.95 31.0 10.8 30.8 Q10.15 30.0 9.6 30.15 L9.6 30.0 Q9.6 29.2 8.75 29.2 7.95 29.2 7.95 30.0 7.95 30.85 8.75 30.85 L8.9 30.85 M-0.7 34.3 L-0.95 35.5 Q-0.95 36.35 -0.5 36.85 -1.8 36.2 -1.8 34.35 -1.8 31.65 0.25 31.65 2.3 31.65 2.3 34.35 L2.0 35.8 2.0 35.5 Q2.0 33.75 0.85 33.6 L0.9 33.15 Q0.9 31.95 -0.3 31.95 -1.5 31.95 -1.5 33.15 -1.5 34.1 -0.7 34.3 M-7.9 30.85 L-7.9 30.6 Q-7.9 29.8 -8.75 29.8 -9.55 29.8 -9.55 30.6 -9.55 31.15 -9.2 31.3 L-9.4 31.7 Q-9.75 32.45 -9.5 33.05 -10.5 32.4 -9.75 30.7 -8.95 28.9 -7.7 29.4 -6.45 30.0 -7.35 31.8 L-7.6 32.3 Q-7.25 31.15 -7.9 30.85" fill="#ff7d00" fill-rule="evenodd" stroke="none"/>
      <path d="M8.3 33.2 Q7.0 32.4 6.65 30.5 6.35 29.6 6.45 29.0 L6.45 28.6 6.6 28.65 6.7 28.65 7.5 31.25 Q8.35 32.9 9.25 33.1 L9.25 33.6 8.3 33.2 M-0.85 38.5 Q-1.8 38.25 -2.4 37.75 L-3.15 36.4 Q-3.5 35.5 -3.45 34.6 L-3.25 33.45 Q-2.95 32.35 -2.1 31.2 L-1.85 31.0 Q-3.1 33.55 -2.4 35.85 L-1.5 37.3 Q-0.7 38.15 -0.05 38.05 L-0.05 38.45 -0.85 38.5 M8.9 30.85 L8.75 30.85 Q7.95 30.85 7.95 30.0 7.95 29.2 8.75 29.2 9.6 29.2 9.6 30.0 L9.6 30.15 Q9.55 30.8 8.9 30.85 M-0.7 34.3 Q-1.5 34.1 -1.5 33.15 -1.5 31.95 -0.3 31.95 0.9 31.95 0.9 33.15 L0.85 33.6 Q0.65 34.35 -0.3 34.35 L-0.7 34.3 M-9.2 31.3 Q-9.55 31.15 -9.55 30.6 -9.55 29.8 -8.75 29.8 -7.9 29.8 -7.9 30.6 L-7.9 30.85 Q-8.0 31.4 -8.75 31.4 L-9.2 31.3 M-10.4 29.75 Q-10.95 32.9 -10.25 33.3 L-10.75 34.0 Q-11.7 33.5 -11.45 31.9 -11.2 30.4 -10.4 29.7 L-10.4 29.75" fill="#ffffff" fill-rule="evenodd" stroke="none"/>
    </g>
  </defs>
</svg>
